src/scalable/apps/thunderbird.svg

<svg xmlns="http://www.w3.org/2000/svg" width="64" height="64"><path fill="#248afd" d="M27 13c1.54-5.71 9.51-9 17-9 5.41 0 10.67 2.16 14 5-1.99.1-4.38 1-6 2 3 .34 5.29 1.01 7 3a11.7 11.7 0 0 0-4 0c3.22 4.88 5.01 12.08 5 18 0 16.15-12 28-28 28S4 48 4 32c0-2.52.41-6.31 1.15-8.8.16-.51.39-.97.69-1.15.05-.04.11-.05.16-.05.31 0 .55.52.6.71.41 1.6.71 3.79 1.4 5.29 0-3.32 1.36-7.04 3.24-9.67 1.25-1.75 3.61-3.2 4.15-7.89 0 0 .05-.44.61-.44 4.08 1.39 4 10 4 16 2.25.34 2.36-3.71 2.36-3.71C22.05 21.47 22 21 22 20c0-2 1.54-5.49 5-7"/><path fill="#0271ef" d="M58.53 22c.11.33.47 1.85.47 3 0 15.4-12.11 29-27 29-5.82 0-10.34-1.38-15-5C9.82 43.41 5 36.8 5 28c0-2 .45-4.66.71-5.67.07-.27.16-.33.29-.33-.05 0-.12.02-.16.05-.31.2-.5.61-.69 1.15-.32.81-.76 3.49-.8 3.8-.14 1.02-.35 3.31-.35 5 0 16 12 28 28 28s28-11.85 28-28c0-4-.67-7.48-1.47-10"/><path fill="#0259bb" d="M5.71 22.33C5.29 24.1 5 26.01 5 28c0 6.25 2.41 12.33 8.5 18.01C11.88 44 10 40.32 10 36c0-3.25.75-6.78 3.44-9.79.15-.16.3-.21.56-.21.31 0 .65.32.66.74C15.18 41.29 26 49 40 49c-4.48 0-17.37-5.71-7.49-7.64C37.67 40.36 46 38 46 32c0-12.3-7-16-14-16-4.29 0-8.8 3.18-9.64 6.29.39 1.34-1.3 3.87-2.36 3.71 0-6 .08-14.61-4-16-.54 0-.61.44-.61.44-.54 4.69-2.9 6.13-4.15 7.89C9.36 20.96 8 24.33 8 28c-.69-1.5-.99-3.69-1.4-5.29-.05-.18-.3-.71-.6-.71-.17 0-.25.15-.29.33"/><path fill="#d9d9d9" d="M32 43c7 0 14-5 14-11 0-2.51-.64-4.98-2-7-2.43-3.61-6.87-6-12-6-5.22 0-9.6 2.28-12 6-1.28 1.98-2 4.57-2 7 0 11.59 10 17 22 17-.75-.09-5.33-.26-8.49-4-.29-.34-.51-.63-.51-1 0-.59.55-1 1-1"/><path fill="#f2f2f2" d="M34 35c-.64.64-1.24 1.01-2 1-.74-.01-1.39-.39-2-1L20 25c3-4.65 8-6 12-6s9 1.58 12 6z"/><path fill="#e4e4e4" d="M34.57 13.86c1.56-.54 1.42-2.24 1.42-2.24s-.78-1.01-2.33-.45c-1.45.53-1.67 1.66-1.67 1.66s.79 1.65 2.57 1.03z"/></svg>

<?xml version="1.0" encoding="UTF-8" standalone="no"?>
<svg
   width="64"
   height="64"
   viewBox="0 0 16.933 16.933"
   version="1.1"
   id="svg2"
   sodipodi:docname="thunderbird.svg"
   xml:space="preserve"
   inkscape:version="1.4.1 (93de688d07, 2025-03-30)"
   xmlns:inkscape="http://www.inkscape.org/namespaces/inkscape"
   xmlns:sodipodi="http://sodipodi.sourceforge.net/DTD/sodipodi-0.dtd"
   xmlns="http://www.w3.org/2000/svg"
   xmlns:svg="http://www.w3.org/2000/svg"><defs
     id="defs2" /><sodipodi:namedview
     id="namedview2"
     pagecolor="#505050"
     bordercolor="#ffffff"
     borderopacity="1"
     inkscape:showpageshadow="0"
     inkscape:pageopacity="0"
     inkscape:pagecheckerboard="1"
     inkscape:deskcolor="#505050"
     inkscape:zoom="8.5449832"
     inkscape:cx="25.512046"
     inkscape:cy="31.831543"
     inkscape:window-width="1366"
     inkscape:window-height="844"
     inkscape:window-x="0"
     inkscape:window-y="0"
     inkscape:window-maximized="1"
     inkscape:current-layer="svg2" /><circle
     cx="8.466"
     cy="8.466"
     r="7.144"
     fill="#f0f0f0"
     style="paint-order:stroke fill markers;fill:#85bdfd;fill-opacity:1"
     id="circle1" /><g
     id="g3"
     transform="matrix(0.17953502,0,0,0.17953502,2.7213755,2.7213755)"
     inkscape:label="g2"><path
       fill="#248afd"
       d="m 27,13 c 1.54,-5.71 9.51,-9 17,-9 5.41,0 10.67,2.16 14,5 -1.99,0.1 -4.38,1 -6,2 3,0.34 5.29,1.01 7,3 a 11.7,11.7 0 0 0 -4,0 c 3.22,4.88 5.01,12.08 5,18 C 60,48.15 48,60 32,60 16,60 4,48 4,32 4,29.48 4.41,25.69 5.15,23.2 5.31,22.69 5.54,22.23 5.84,22.05 5.89,22.01 5.95,22 6,22 c 0.31,0 0.55,0.52 0.6,0.71 0.41,1.6 0.71,3.79 1.4,5.29 0,-3.32 1.36,-7.04 3.24,-9.67 1.25,-1.75 3.61,-3.2 4.15,-7.89 0,0 0.05,-0.44 0.61,-0.44 4.08,1.39 4,10 4,16 2.25,0.34 2.36,-3.71 2.36,-3.71 C 22.05,21.47 22,21 22,20 c 0,-2 1.54,-5.49 5,-7"
       id="path1-3" /><path
       fill="#0271ef"
       d="M 58.53,22 C 58.64,22.33 59,23.85 59,25 59,40.4 46.89,54 32,54 26.18,54 21.66,52.62 17,49 9.82,43.41 5,36.8 5,28 5,26 5.45,23.34 5.71,22.33 5.78,22.06 5.87,22 6,22 5.95,22 5.88,22.02 5.84,22.05 5.53,22.25 5.34,22.66 5.15,23.2 4.83,24.01 4.39,26.69 4.35,27 4.21,28.02 4,30.31 4,32 4,48 16,60 32,60 48,60 60,48.15 60,32 60,28 59.33,24.52 58.53,22"
       id="path2-6" /><path
       fill="#0259bb"
       d="M 5.71,22.33 C 5.29,24.1 5,26.01 5,28 5,34.25 7.41,40.33 13.5,46.01 11.88,44 10,40.32 10,36 10,32.75 10.75,29.22 13.44,26.21 13.59,26.05 13.74,26 14,26 c 0.31,0 0.65,0.32 0.66,0.74 C 15.18,41.29 26,49 40,49 35.52,49 22.63,43.29 32.51,41.36 37.67,40.36 46,38 46,32 46,19.7 39,16 32,16 c -4.29,0 -8.8,3.18 -9.64,6.29 0.39,1.34 -1.3,3.87 -2.36,3.71 0,-6 0.08,-14.61 -4,-16 -0.54,0 -0.61,0.44 -0.61,0.44 -0.54,4.69 -2.9,6.13 -4.15,7.89 C 9.36,20.96 8,24.33 8,28 7.31,26.5 7.01,24.31 6.6,22.71 6.55,22.53 6.3,22 6,22 5.83,22 5.75,22.15 5.71,22.33"
       id="path3" /><path
       fill="#d9d9d9"
       d="m 32,43 c 7,0 14,-5 14,-11 0,-2.51 -0.64,-4.98 -2,-7 -2.43,-3.61 -6.87,-6 -12,-6 -5.22,0 -9.6,2.28 -12,6 -1.28,1.98 -2,4.57 -2,7 0,11.59 10,17 22,17 C 39.25,48.91 34.67,48.74 31.51,45 31.22,44.66 31,44.37 31,44 c 0,-0.59 0.55,-1 1,-1"
       id="path4" /><path
       fill="#f2f2f2"
       d="m 34,35 c -0.64,0.64 -1.24,1.01 -2,1 -0.74,-0.01 -1.39,-0.39 -2,-1 L 20,25 c 3,-4.65 8,-6 12,-6 4,0 9,1.58 12,6 z"
       id="path5" /><path
       fill="#e4e4e4"
       d="m 34.57,13.86 c 1.56,-0.54 1.42,-2.24 1.42,-2.24 0,0 -0.78,-1.01 -2.33,-0.45 -1.45,0.53 -1.67,1.66 -1.67,1.66 0,0 0.79,1.65 2.57,1.03 z"
       id="path6" /></g></svg>
